<?xml version='1.0' encoding='UTF-8'?>
<map version="1.10" tiledversion="1.10.2" orientation="orthogonal" renderorder="right-down" width="56" height="40" tilewidth="16" tileheight="16" infinite="0" nextlayerid="5" nextobjectid="180">
 <properties>
  <property name="ambient" type="float" value="0.32" />
  <property name="ambient_color" type="color" value="#ff7e8cc0" />
  <property name="background" type="color" value="#ff0d1012" />
  <property name="vignette" type="float" value="0.45" />
  <property name="saturation" type="float" value="0.85" />
 </properties>
 <tileset firstgid="1" name="city" tilewidth="16" tileheight="16" tilecount="1036" columns="37">
  <image source="../../../asset/packs/city/Tilemap/tilemap_packed.png" width="592" height="448" />
 </tileset>
 <tileset firstgid="1037" name="props" tilewidth="32" tileheight="32" tilecount="37" columns="0">
  <grid orientation="orthogonal" width="1" height="1" />
  <tile id="0">
   <image width="8" height="12" source="../../../asset/props/barrel_grey.png" />
  </tile>
  <tile id="1">
   <image width="8" height="12" source="../../../asset/props/barrel_orange.png" />
  </tile>
  <tile id="2">
   <image width="8" height="12" source="../../../asset/props/barrel_white.png" />
  </tile>
  <tile id="3">
   <image width="16" height="13" source="../../../asset/props/barricade_a.png" />
  </tile>
  <tile id="4">
   <image width="16" height="13" source="../../../asset/props/barricade_b.png" />
  </tile>
  <tile id="5">
   <image width="16" height="11" source="../../../asset/props/barricade_c.png" />
  </tile>
  <tile id="6">
   <image width="16" height="13" source="../../../asset/props/barricade_d.png" />
  </tile>
  <tile id="7">
   <image width="16" height="16" source="../../../asset/props/bench.png" />
  </tile>
  <tile id="8">
   <image width="16" height="16" source="../../../asset/props/bench_b.png" />
  </tile>
  <tile id="9">
   <image width="8" height="10" source="../../../asset/props/bin.png" />
  </tile>
  <tile id="10">
   <image width="8" height="11" source="../../../asset/props/bin_b.png" />
  </tile>
  <tile id="11">
   <image width="12" height="14" source="../../../asset/props/bin_c.png" />
  </tile>
  <tile id="12">
   <image width="12" height="16" source="../../../asset/props/boxes.png" />
  </tile>
  <tile id="13">
   <image width="12" height="15" source="../../../asset/props/boxes_b.png" />
  </tile>
  <tile id="14">
   <image width="27" height="32" source="../../../asset/props/car_green.png" />
  </tile>
  <tile id="15">
   <image width="32" height="27" source="../../../asset/props/car_green_side.png" />
  </tile>
  <tile id="16">
   <image width="32" height="32" source="../../../asset/props/car_grey.png" />
  </tile>
  <tile id="17">
   <image width="32" height="32" source="../../../asset/props/car_grey_side.png" />
  </tile>
  <tile id="18">
   <image width="32" height="32" source="../../../asset/props/car_orange.png" />
  </tile>
  <tile id="19">
   <image width="32" height="32" source="../../../asset/props/car_orange_side.png" />
  </tile>
  <tile id="20">
   <image width="10" height="10" source="../../../asset/props/crate.png" />
  </tile>
  <tile id="21">
   <image width="12" height="12" source="../../../asset/props/crate_b.png" />
  </tile>
  <tile id="22">
   <image width="14" height="15" source="../../../asset/props/dumpster_brown.png" />
  </tile>
  <tile id="23">
   <image width="14" height="15" source="../../../asset/props/dumpster_green.png" />
  </tile>
  <tile id="24">
   <image width="14" height="15" source="../../../asset/props/dumpster_grey.png" />
  </tile>
  <tile id="25">
   <image width="14" height="15" source="../../../asset/props/dumpster_orange.png" />
  </tile>
  <tile id="26">
   <image width="7" height="32" source="../../../asset/props/lamp.png" />
  </tile>
  <tile id="27">
   <image width="6" height="32" source="../../../asset/props/lamp_b.png" />
  </tile>
  <tile id="28">
   <image width="16" height="16" source="../../../asset/props/rocks.png" />
  </tile>
  <tile id="29">
   <image width="16" height="15" source="../../../asset/props/rocks_b.png" />
  </tile>
  <tile id="30">
   <image width="12" height="32" source="../../../asset/props/tree_green.png" />
  </tile>
  <tile id="31">
   <image width="12" height="32" source="../../../asset/props/tree_green_b.png" />
  </tile>
  <tile id="32">
   <image width="10" height="32" source="../../../asset/props/tree_green_c.png" />
  </tile>
  <tile id="33">
   <image width="12" height="32" source="../../../asset/props/tree_orange.png" />
  </tile>
  <tile id="34">
   <image width="10" height="32" source="../../../asset/props/tree_orange_b.png" />
  </tile>
  <tile id="35">
   <image width="10" height="32" source="../../../asset/props/tree_orange_c.png" />
  </tile>
  <tile id="36">
   <image width="10" height="14" source="../../../asset/props/vending.png" />
  </tile>
 </tileset>
 <layer id="1" name="Ground" width="56" height="40">
  <data encoding="csv">
889,889,889,889,889,889,889,889,889,889,889,889,889,889,889,889,889,889,889,889,889,889,889,889,889,889,715,715,715,715,889,889,889,889,889,889,889,889,889,889,889,889,889,889,889,889,889,889,889,889,889,889,889,889,889,889,
889,889,889,889,889,889,889,889,889,889,889,889,889,889,889,889,889,889,889,889,889,889,889,889,889,889,715,715,715,715,889,889,889,889,889,889,889,889,889,889,889,889,889,889,889,889,889,889,889,889,889,889,889,889,889,889,
889,889,889,889,889,889,889,889,889,889,889,889,889,889,889,889,889,889,889,889,889,889,889,889,889,889,715,715,715,715,889,889,889,889,889,889,889,889,889,889,889,889,889,889,889,889,889,889,889,889,889,889,889,889,889,889,
889,889,889,889,889,889,889,889,889,889,889,889,889,889,889,889,889,889,889,889,889,889,889,889,889,889,715,715,715,715,889,889,889,889,889,889,889,889,889,889,889,889,889,889,889,889,889,889,889,889,889,889,889,889,889,889,
889,889,889,889,889,889,889,889,889,889,889,889,889,889,889,889,889,889,889,889,889,889,889,889,889,889,715,715,715,715,889,889,889,889,889,889,889,889,889,889,889,889,889,889,889,889,889,889,889,889,889,889,889,889,889,889,
889,889,889,889,889,889,889,889,889,889,889,889,889,889,889,889,889,889,889,889,889,889,889,889,889,889,715,715,715,715,715,715,715,715,715,715,715,715,715,715,715,715,715,715,715,715,889,889,889,889,889,889,889,889,889,889,
889,889,889,889,889,889,889,889,889,889,889,889,889,889,889,889,889,889,889,889,889,889,889,889,889,889,715,715,715,715,715,715,715,715,715,715,715,715,715,715,715,715,715,715,715,715,889,889,889,889,889,889,889,889,889,889,
889,889,889,889,889,889,889,889,889,889,889,889,889,889,889,889,889,889,889,889,889,889,889,889,889,889,715,715,715,715,715,715,715,715,715,715,715,715,715,715,715,715,715,715,715,715,889,889,889,889,889,889,889,889,889,889,
889,889,889,889,889,889,889,889,889,889,889,889,889,889,889,889,889,889,889,889,889,889,889,889,889,889,715,715,715,715,889,889,889,889,889,889,889,889,889,889,889,889,889,715,715,715,889,889,889,889,889,889,889,889,889,889,
889,889,889,889,889,889,889,889,889,889,889,889,889,889,889,889,889,889,889,889,889,889,889,889,889,889,715,715,715,715,889,889,889,889,889,889,889,889,889,889,889,889,889,715,715,715,889,889,889,889,889,889,889,889,889,889,
889,889,889,889,889,889,889,889,889,889,889,889,889,889,889,889,889,889,889,889,889,889,889,889,889,889,715,715,715,715,889,889,889,889,889,889,889,889,889,889,889,889,889,715,715,715,889,889,889,889,889,889,889,889,889,889,
889,889,889,889,889,889,889,889,889,889,889,889,889,889,889,889,889,889,889,889,889,889,889,889,889,889,715,715,715,715,889,889,889,889,889,889,889,889,889,889,889,889,889,715,715,715,889,889,889,889,889,889,889,889,889,889,
889,889,889,889,889,889,889,889,889,889,889,889,889,889,889,889,889,889,889,889,889,889,889,889,889,889,715,715,715,715,889,889,889,889,889,889,889,889,889,889,889,889,889,715,715,715,889,889,889,889,889,889,889,889,889,889,
889,889,889,889,889,889,889,889,889,889,889,889,889,889,889,889,889,889,889,889,889,889,889,889,889,889,715,715,715,715,889,889,889,889,889,889,889,889,889,889,889,889,889,715,715,715,889,889,889,889,889,889,889,889,889,889,
889,889,889,889,889,889,889,889,889,889,889,889,889,889,889,889,889,889,889,889,889,889,706,706,704,704,715,715,715,715,706,705,705,704,889,889,889,889,889,889,889,889,889,715,715,715,889,889,889,889,889,889,889,889,889,889,
889,889,889,889,889,889,889,889,889,889,889,889,889,889,889,889,889,889,889,889,889,786,786,705,786,705,705,705,706,779,705,704,785,704,705,889,889,889,889,889,889,889,889,715,715,715,889,889,889,889,889,889,889,889,889,889,
889,889,889,889,889,889,889,889,889,889,889,889,889,889,889,889,889,889,889,889,889,704,705,786,705,704,785,705,705,706,705,704,706,706,786,889,889,889,889,889,889,889,889,715,715,715,889,889,889,889,889,889,889,889,889,889,
889,889,889,889,889,889,889,889,889,889,889,889,889,889,889,889,889,889,889,889,889,704,705,705,704,705,779,706,706,704,705,704,705,780,706,889,889,889,889,889,889,889,889,715,715,715,889,889,889,889,889,889,889,889,889,889,
715,715,715,715,715,715,715,715,715,715,715,715,715,715,715,715,715,715,715,715,715,715,704,780,705,705,706,706,705,705,705,778,704,705,715,715,715,715,715,715,715,715,715,715,715,715,715,715,715,715,715,715,715,715,715,715,
715,715,715,715,715,715,715,715,715,715,715,715,715,715,715,715,715,715,715,715,715,715,704,704,705,706,705,705,706,704,704,705,704,706,715,715,715,715,715,715,715,715,715,715,715,715,715,715,715,715,715,715,715,715,715,715,
715,715,715,715,715,715,715,715,715,715,715,715,715,715,715,715,715,715,715,715,715,715,706,706,705,706,705,706,704,706,780,704,705,706,715,715,715,715,715,715,715,715,715,715,715,715,715,715,715,715,715,715,715,715,715,715,
715,715,715,715,715,715,715,715,715,715,715,715,715,715,715,715,715,715,715,715,715,715,704,704,704,704,706,786,706,705,706,705,706,706,715,715,715,715,715,715,715,715,715,715,715,715,715,715,715,715,715,715,715,715,715,715,
889,889,889,889,889,889,889,889,889,889,715,715,715,889,889,889,889,889,889,889,889,704,704,706,705,706,705,705,706,706,704,705,779,785,704,889,889,889,889,889,889,889,889,889,889,889,889,889,889,889,889,889,889,889,889,889,
889,889,889,889,889,889,889,889,889,889,715,715,715,889,889,889,889,889,889,889,889,706,704,785,706,704,706,705,705,705,704,706,704,704,705,889,889,889,889,889,889,889,889,889,889,889,889,889,889,889,889,889,889,889,889,889,
889,889,889,889,889,889,889,889,889,889,715,715,715,889,889,889,889,889,889,889,889,705,705,705,705,706,705,705,705,705,778,704,706,704,704,889,889,889,889,889,889,889,889,889,889,889,889,889,889,889,889,889,889,889,889,889,
889,889,889,889,889,889,889,889,889,889,715,715,715,889,889,889,889,889,889,889,889,889,705,704,704,706,715,715,715,715,706,704,704,704,889,889,889,889,889,889,889,889,889,889,889,889,889,889,889,889,889,889,889,889,889,889,
889,889,889,889,889,889,889,889,889,889,715,715,715,889,889,889,889,889,889,889,889,889,889,889,889,889,715,715,715,715,889,889,889,889,889,889,889,889,889,889,889,889,889,889,889,889,889,889,889,889,889,889,889,889,889,889,
889,889,889,889,889,889,889,889,889,889,715,715,715,889,889,889,889,889,889,889,889,889,889,889,889,889,715,715,715,715,889,889,889,889,889,889,889,889,889,889,889,889,889,889,889,889,889,889,889,889,889,889,889,889,889,889,
889,889,889,889,889,889,889,889,889,889,715,715,715,889,889,889,889,889,889,889,889,889,889,889,889,889,715,715,715,715,889,889,889,889,889,889,889,889,889,889,889,889,889,889,889,889,889,889,889,889,889,889,889,889,889,889,
889,889,889,889,889,889,889,889,889,889,715,715,715,889,889,889,889,889,889,889,889,889,889,889,889,889,715,715,715,715,889,889,889,889,889,889,889,889,889,889,889,889,889,889,889,889,889,889,889,889,889,889,889,889,889,889,
889,889,889,889,889,889,889,889,889,889,715,715,715,889,889,889,889,889,889,889,889,889,889,889,889,889,715,715,715,715,889,889,889,889,889,889,889,889,889,889,889,889,889,889,889,889,889,889,889,889,889,889,889,889,889,889,
889,889,889,889,889,889,889,889,889,889,715,715,715,715,715,715,715,715,715,715,715,715,715,715,715,715,715,715,715,715,889,889,889,889,889,889,889,889,889,889,889,889,889,889,889,889,889,889,889,889,889,889,889,889,889,889,
889,889,889,889,889,889,889,889,889,889,715,715,715,715,715,715,715,715,715,715,715,715,715,715,715,715,715,715,715,715,889,889,889,889,889,889,889,889,889,889,889,889,889,889,889,889,889,889,889,889,889,889,889,889,889,889,
889,889,889,889,889,889,889,889,889,889,715,715,715,715,715,715,715,715,715,715,715,715,715,715,715,715,715,715,715,715,889,889,889,889,889,889,889,889,889,889,889,889,889,889,889,889,889,889,889,889,889,889,889,889,889,889,
889,889,889,889,889,889,889,889,889,889,889,889,889,889,889,889,889,889,889,889,889,889,889,889,889,889,715,715,715,715,889,889,889,889,889,889,889,889,889,889,889,889,889,889,889,889,889,889,889,889,889,889,889,889,889,889,
889,889,889,889,889,889,889,889,889,889,889,889,889,889,889,889,889,889,889,889,889,889,889,889,889,889,715,715,715,715,889,889,889,889,889,889,889,889,889,889,889,889,889,889,889,889,889,889,889,889,889,889,889,889,889,889,
889,889,889,889,889,889,889,889,889,889,889,889,889,889,889,889,889,889,889,889,889,889,889,889,889,889,715,715,715,715,889,889,889,889,889,889,889,889,889,889,889,889,889,889,889,889,889,889,889,889,889,889,889,889,889,889,
889,889,889,889,889,889,889,889,889,889,889,889,889,889,889,889,889,889,889,889,889,889,889,889,889,889,715,715,715,715,889,889,889,889,889,889,889,889,889,889,889,889,889,889,889,889,889,889,889,889,889,889,889,889,889,889,
889,889,889,889,889,889,889,889,889,889,889,889,889,889,889,889,889,889,889,889,889,889,889,889,889,889,715,715,715,715,889,889,889,889,889,889,889,889,889,889,889,889,889,889,889,889,889,889,889,889,889,889,889,889,889,889,
889,889,889,889,889,889,889,889,889,889,889,889,889,889,889,889,889,889,889,889,889,889,889,889,889,889,715,715,715,715,889,889,889,889,889,889,889,889,889,889,889,889,889,889,889,889,889,889,889,889,889,889,889,889,889,889
</data>
 </layer>
 <layer id="2" name="Markings" width="56" height="40">
  <data encoding="csv">
0,0,0,0,0,0,0,0,0,0,0,0,0,0,0,0,0,0,0,0,0,0,0,0,0,0,0,754,0,0,0,0,0,0,0,0,0,0,0,0,0,0,0,0,0,0,0,0,0,0,0,0,0,0,0,0,
0,0,0,0,0,0,0,0,0,0,0,0,0,0,0,0,0,0,0,0,0,0,0,0,0,0,0,754,0,0,0,0,0,0,0,0,0,0,0,0,0,0,0,0,0,0,0,0,0,0,0,0,0,0,0,0,
0,0,0,0,0,0,0,0,0,0,0,0,0,0,0,0,0,0,0,0,0,0,0,0,0,0,0,754,0,0,0,0,0,0,0,0,0,0,0,0,0,0,0,0,0,0,0,0,0,0,0,0,0,0,0,0,
0,0,0,0,0,0,0,0,0,0,0,0,0,0,0,0,0,0,0,0,0,0,0,0,0,0,0,754,0,0,0,0,0,0,0,0,0,0,0,0,0,0,0,0,0,0,0,0,0,0,0,0,0,0,0,0,
0,0,0,0,0,0,0,0,0,0,0,0,0,0,0,0,0,0,0,0,0,0,0,0,0,0,0,754,0,0,0,0,0,0,0,0,0,0,0,0,0,0,0,0,0,0,0,0,0,0,0,0,0,0,0,0,
0,0,0,0,0,0,0,0,0,0,0,0,0,0,0,0,0,0,0,0,0,0,0,0,0,0,0,754,0,0,0,0,0,0,0,0,0,0,0,0,0,0,0,0,0,0,0,0,0,0,0,0,0,0,0,0,
0,0,0,0,0,0,0,0,0,0,0,0,0,0,0,0,0,0,0,0,0,0,0,0,0,0,0,754,0,0,0,0,0,0,0,0,0,0,0,0,0,0,0,0,0,0,0,0,0,0,0,0,0,0,0,0,
0,0,0,0,0,0,0,0,0,0,0,0,0,0,0,0,0,0,0,0,0,0,0,0,0,0,0,754,0,0,0,0,0,0,0,0,0,0,0,0,0,0,0,0,0,0,0,0,0,0,0,0,0,0,0,0,
0,0,0,0,0,0,0,0,0,0,0,0,0,0,0,0,0,0,0,0,0,0,0,0,0,0,0,754,0,0,0,0,0,0,0,0,0,0,0,0,0,0,0,0,0,0,0,0,0,0,0,0,0,0,0,0,
0,0,0,0,0,0,0,0,0,0,0,0,0,0,0,0,0,0,0,0,0,0,0,0,0,0,0,754,0,0,0,0,0,0,0,0,0,0,0,0,0,0,0,0,0,0,0,0,0,0,0,0,0,0,0,0,
0,0,0,0,0,0,0,0,0,0,0,0,0,0,0,0,0,0,0,0,0,0,0,0,0,0,0,754,0,0,0,0,0,0,0,0,0,0,0,0,0,0,0,0,0,0,0,0,0,0,0,0,0,0,0,0,
0,0,0,0,0,0,0,0,0,0,0,0,0,0,0,0,0,0,0,0,0,0,0,0,0,0,0,754,0,0,0,0,0,0,0,0,0,0,0,0,0,0,0,0,0,0,0,0,0,0,0,0,0,0,0,0,
0,0,0,0,0,0,0,0,0,0,0,0,0,0,0,0,0,0,0,0,0,0,0,0,0,0,0,754,0,0,0,0,0,0,0,0,0,0,0,0,0,0,0,0,0,0,0,0,0,0,0,0,0,0,0,0,
0,0,0,0,0,0,0,0,0,0,0,0,0,0,0,0,0,0,0,0,0,0,0,0,0,0,0,754,0,0,0,0,0,0,0,0,0,0,0,0,0,0,0,0,0,0,0,0,0,0,0,0,0,0,0,0,
0,0,0,0,0,0,0,0,0,0,0,0,0,0,0,0,0,0,0,0,0,0,0,0,0,0,0,754,0,0,0,0,0,0,0,0,0,0,0,0,0,0,0,0,0,0,0,0,0,0,0,0,0,0,0,0,
0,0,0,0,0,0,0,0,0,0,0,0,0,0,0,0,0,0,0,0,0,0,0,0,0,0,0,0,0,0,0,0,0,0,0,0,0,0,0,0,0,0,0,0,0,0,0,0,0,0,0,0,0,0,0,0,
0,0,0,0,0,0,0,0,0,0,0,0,0,0,0,0,0,0,0,0,0,0,0,0,0,0,0,0,0,0,0,0,0,0,0,0,0,0,0,0,0,0,0,0,0,0,0,0,0,0,0,0,0,0,0,0,
0,0,0,0,0,0,0,0,0,0,0,0,0,0,0,0,0,0,0,0,0,0,0,0,0,0,0,0,0,0,0,0,0,0,0,0,0,0,0,0,0,0,0,0,0,0,0,0,0,0,0,0,0,0,0,0,
0,0,0,0,0,0,0,0,0,0,0,0,0,0,0,0,0,0,0,0,0,0,0,0,0,0,0,0,0,0,0,0,0,0,0,0,0,0,0,0,0,0,0,0,0,0,0,0,0,0,0,0,0,0,0,0,
717,717,717,717,717,717,717,717,717,717,717,717,717,717,717,717,717,717,717,717,717,717,0,0,0,0,0,0,0,0,0,0,0,0,717,717,717,717,717,717,717,717,717,717,717,717,717,717,717,717,717,717,717,717,717,717,
0,0,0,0,0,0,0,0,0,0,0,0,0,0,0,0,0,0,0,0,0,0,0,0,0,0,0,0,0,0,0,0,0,0,0,0,0,0,0,0,0,0,0,0,0,0,0,0,0,0,0,0,0,0,0,0,
0,0,0,0,0,0,0,0,0,0,0,0,0,0,0,0,0,0,0,0,0,0,0,0,0,0,0,0,0,0,0,0,0,0,0,0,0,0,0,0,0,0,0,0,0,0,0,0,0,0,0,0,0,0,0,0,
0,0,0,0,0,0,0,0,0,0,0,0,0,0,0,0,0,0,0,0,0,0,0,0,0,0,0,0,0,0,0,0,0,0,0,0,0,0,0,0,0,0,0,0,0,0,0,0,0,0,0,0,0,0,0,0,
0,0,0,0,0,0,0,0,0,0,0,0,0,0,0,0,0,0,0,0,0,0,0,0,0,0,0,0,0,0,0,0,0,0,0,0,0,0,0,0,0,0,0,0,0,0,0,0,0,0,0,0,0,0,0,0,
0,0,0,0,0,0,0,0,0,0,0,0,0,0,0,0,0,0,0,0,0,0,0,0,0,0,0,0,0,0,0,0,0,0,0,0,0,0,0,0,0,0,0,0,0,0,0,0,0,0,0,0,0,0,0,0,
0,0,0,0,0,0,0,0,0,0,0,0,0,0,0,0,0,0,0,0,0,0,0,0,0,0,0,754,0,0,0,0,0,0,0,0,0,0,0,0,0,0,0,0,0,0,0,0,0,0,0,0,0,0,0,0,
0,0,0,0,0,0,0,0,0,0,0,0,0,0,0,0,0,0,0,0,0,0,0,0,0,0,0,754,0,0,0,0,0,0,0,0,0,0,0,0,0,0,0,0,0,0,0,0,0,0,0,0,0,0,0,0,
0,0,0,0,0,0,0,0,0,0,0,0,0,0,0,0,0,0,0,0,0,0,0,0,0,0,0,754,0,0,0,0,0,0,0,0,0,0,0,0,0,0,0,0,0,0,0,0,0,0,0,0,0,0,0,0,
0,0,0,0,0,0,0,0,0,0,0,0,0,0,0,0,0,0,0,0,0,0,0,0,0,0,0,754,0,0,0,0,0,0,0,0,0,0,0,0,0,0,0,0,0,0,0,0,0,0,0,0,0,0,0,0,
0,0,0,0,0,0,0,0,0,0,0,0,0,0,0,0,0,0,0,0,0,0,0,0,0,0,0,754,0,0,0,0,0,0,0,0,0,0,0,0,0,0,0,0,0,0,0,0,0,0,0,0,0,0,0,0,
0,0,0,0,0,0,0,0,0,0,0,0,0,0,0,0,0,0,0,0,0,0,0,0,0,0,0,754,0,0,0,0,0,0,0,0,0,0,0,0,0,0,0,0,0,0,0,0,0,0,0,0,0,0,0,0,
0,0,0,0,0,0,0,0,0,0,0,0,0,0,0,0,0,0,0,0,0,0,0,0,0,0,0,754,0,0,0,0,0,0,0,0,0,0,0,0,0,0,0,0,0,0,0,0,0,0,0,0,0,0,0,0,
0,0,0,0,0,0,0,0,0,0,0,0,0,0,0,0,0,0,0,0,0,0,0,0,0,0,0,754,0,0,0,0,0,0,0,0,0,0,0,0,0,0,0,0,0,0,0,0,0,0,0,0,0,0,0,0,
0,0,0,0,0,0,0,0,0,0,0,0,0,0,0,0,0,0,0,0,0,0,0,0,0,0,0,754,0,0,0,0,0,0,0,0,0,0,0,0,0,0,0,0,0,0,0,0,0,0,0,0,0,0,0,0,
0,0,0,0,0,0,0,0,0,0,0,0,0,0,0,0,0,0,0,0,0,0,0,0,0,0,0,754,0,0,0,0,0,0,0,0,0,0,0,0,0,0,0,0,0,0,0,0,0,0,0,0,0,0,0,0,
0,0,0,0,0,0,0,0,0,0,0,0,0,0,0,0,0,0,0,0,0,0,0,0,0,0,0,754,0,0,0,0,0,0,0,0,0,0,0,0,0,0,0,0,0,0,0,0,0,0,0,0,0,0,0,0,
0,0,0,0,0,0,0,0,0,0,0,0,0,0,0,0,0,0,0,0,0,0,0,0,0,0,0,754,0,0,0,0,0,0,0,0,0,0,0,0,0,0,0,0,0,0,0,0,0,0,0,0,0,0,0,0,
0,0,0,0,0,0,0,0,0,0,0,0,0,0,0,0,0,0,0,0,0,0,0,0,0,0,0,754,0,0,0,0,0,0,0,0,0,0,0,0,0,0,0,0,0,0,0,0,0,0,0,0,0,0,0,0,
0,0,0,0,0,0,0,0,0,0,0,0,0,0,0,0,0,0,0,0,0,0,0,0,0,0,0,754,0,0,0,0,0,0,0,0,0,0,0,0,0,0,0,0,0,0,0,0,0,0,0,0,0,0,0,0,
0,0,0,0,0,0,0,0,0,0,0,0,0,0,0,0,0,0,0,0,0,0,0,0,0,0,0,754,0,0,0,0,0,0,0,0,0,0,0,0,0,0,0,0,0,0,0,0,0,0,0,0,0,0,0,0
</data>
 </layer>
 <objectgroup id="3" name="Props">
  <object id="1" gid="2147484719" x="594" y="10" width="10" height="32" />
  <object id="2" gid="1071" x="69" y="11" width="10" height="32" />
  <object id="3" gid="1070" x="200" y="11" width="12" height="32" />
  <object id="4" gid="1071" x="3" y="11" width="10" height="32" />
  <object id="5" gid="1071" x="777" y="12" width="10" height="32" />
  <object id="6" gid="2147484717" x="107" y="13" width="10" height="32" />
  <object id="7" gid="2147484716" x="297" y="17" width="12" height="32" />
  <object id="8" gid="1067" x="675" y="19" width="12" height="32" />
  <object id="9" gid="2147484718" x="250" y="21" width="12" height="32" />
  <object id="10" gid="1069" x="363" y="23" width="10" height="32" />
  <object id="11" gid="1043" x="416" y="24" width="16" height="13" />
  <object id="12" gid="1040" x="432" y="24" width="16" height="13" />
  <object id="13" gid="1040" x="448" y="24" width="16" height="13" />
  <object id="14" gid="1072" x="867" y="26" width="10" height="32" />
  <object id="15" gid="2147484720" x="148" y="26" width="10" height="32" />
  <object id="16" gid="1072" x="500" y="27" width="10" height="32" />
  <object id="17" gid="2147484719" x="40" y="29" width="10" height="32" />
  <object id="18" gid="1070" x="822" y="29" width="12" height="32" />
  <object id="19" gid="2147484717" x="545" y="30" width="10" height="32" />
  <object id="20" gid="2147484719" x="626" y="36" width="10" height="32" />
  <object id="21" gid="1069" x="748" y="40" width="10" height="32" />
  <object id="22" gid="2147484716" x="182" y="42" width="12" height="32" />
  <object id="23" gid="2147484720" x="786" y="44" width="10" height="32" />
  <object id="24" gid="1072" x="593" y="45" width="10" height="32" />
  <object id="25" gid="1067" x="656" y="46" width="12" height="32" />
  <object id="26" gid="1070" x="304" y="48" width="12" height="32" />
  <object id="27" gid="1070" x="81" y="48" width="12" height="32" />
  <object id="28" gid="2147484718" x="695" y="50" width="12" height="32" />
  <object id="29" gid="2147484718" x="385" y="50" width="12" height="32" />
  <object id="30" gid="2147484715" x="263" y="51" width="12" height="32" />
  <object id="31" gid="2147484720" x="860" y="62" width="10" height="32" />
  <object id="32" gid="2147484716" x="6" y="75" width="12" height="32" />
  <object id="33" gid="1038" x="521" y="78" width="8" height="12" />
  <object id="34" gid="1048" x="577" y="93" width="12" height="14" />
  <object id="35" gid="1068" x="846" y="96" width="12" height="32" />
  <object id="36" gid="2147484717" x="44" y="99" width="10" height="32" />
  <object id="37" gid="1072" x="310" y="101" width="10" height="32" />
  <object id="38" gid="2147484716" x="7" y="119" width="12" height="32" />
  <object id="39" gid="2147484719" x="875" y="119" width="10" height="32" />
  <object id="40" gid="1058" x="243" y="130" width="12" height="12" />
  <object id="41" gid="2147484718" x="38" y="133" width="12" height="32" />
  <object id="42" gid="1069" x="768" y="134" width="10" height="32" />
  <object id="43" gid="2147484720" x="843" y="150" width="10" height="32" />
  <object id="44" gid="1069" x="382" y="152" width="10" height="32" />
  <object id="45" gid="2147484719" x="3" y="153" width="10" height="32" />
  <object id="46" gid="2147484715" x="875" y="161" width="12" height="32" />
  <object id="47" gid="1067" x="320" y="165" width="12" height="32" />
  <object id="48" gid="2147484713" x="354" y="177" width="16" height="16" />
  <object id="49" gid="1067" x="39" y="178" width="12" height="32" />
  <object id="50" gid="1050" x="497" y="187" width="12" height="15" />
  <object id="51" gid="2147484685" x="714" y="191" width="8" height="12" />
  <object id="52" gid="2147484698" x="661" y="192" width="12" height="15" />
  <object id="53" gid="2147484717" x="860" y="194" width="10" height="32" />
  <object id="54" gid="2147484719" x="815" y="198" width="10" height="32" />
  <object id="55" gid="2147484720" x="783" y="200" width="10" height="32" />
  <object id="56" gid="2147484718" x="16" y="201" width="12" height="32" />
  <object id="57" gid="1067" x="883" y="221" width="12" height="32" />
  <object id="58" gid="1070" x="751" y="229" width="12" height="32" />
  <object id="59" gid="2147484720" x="849" y="233" width="10" height="32" />
  <object id="60" gid="1067" x="27" y="239" width="12" height="32" />
  <object id="61" gid="1038" x="373" y="240" width="8" height="12" />
  <object id="62" gid="1067" x="797" y="240" width="12" height="32" />
  <object id="63" gid="1066" x="609" y="243" width="16" height="15" />
  <object id="64" gid="1063" x="388" y="250" width="7" height="32" />
  <object id="65" gid="1063" x="500" y="250" width="7" height="32" />
  <object id="66" gid="1066" x="115" y="258" width="16" height="15" />
  <object id="67" gid="1072" x="869" y="261" width="10" height="32" />
  <object id="68" gid="1044" x="368" y="272" width="16" height="16" />
  <object id="69" gid="2147484692" x="512" y="272" width="16" height="16" />
  <object id="70" gid="1058" x="210" y="275" width="12" height="12" />
  <object id="71" gid="1043" x="16" y="296" width="16" height="13" />
  <object id="72" gid="1040" x="864" y="296" width="16" height="13" />
  <object id="73" gid="1046" x="482" y="307" width="8" height="10" />
  <object id="74" gid="1043" x="16" y="312" width="16" height="13" />
  <object id="75" gid="1043" x="864" y="312" width="16" height="13" />
  <object id="76" gid="2147484686" x="61" y="324" width="8" height="12" />
  <object id="77" gid="1041" x="16" y="328" width="16" height="13" />
  <object id="78" gid="1041" x="864" y="328" width="16" height="13" />
  <object id="79" gid="1039" x="585" y="355" width="8" height="12" />
  <object id="80" gid="1047" x="107" y="356" width="8" height="11" />
  <object id="81" gid="1049" x="749" y="366" width="12" height="16" />
  <object id="82" gid="1044" x="368" y="368" width="16" height="16" />
  <object id="83" gid="2147484692" x="512" y="368" width="16" height="16" />
  <object id="84" gid="2147484719" x="39" y="372" width="10" height="32" />
  <object id="85" gid="2147484718" x="-2" y="379" width="12" height="32" />
  <object id="86" gid="2147484720" x="871" y="393" width="10" height="32" />
  <object id="87" gid="2147484714" x="223" y="395" width="16" height="15" />
  <object id="88" gid="2147484720" x="46" y="406" width="10" height="32" />
  <object id="89" gid="1069" x="806" y="407" width="10" height="32" />
  <object id="90" gid="1072" x="12" y="410" width="10" height="32" />
  <object id="91" gid="2147484719" x="844" y="412" width="10" height="32" />
  <object id="92" gid="1063" x="388" y="422" width="7" height="32" />
  <object id="93" gid="1063" x="500" y="422" width="7" height="32" />
  <object id="94" gid="2147484695" x="162" y="423" width="8" height="11" />
  <object id="95" gid="1067" x="875" y="428" width="12" height="32" />
  <object id="96" gid="2147484713" x="563" y="440" width="16" height="16" />
  <object id="97" gid="2147484705" x="258" y="441" width="10" height="10" />
  <object id="98" gid="2147484714" x="91" y="442" width="16" height="15" />
  <object id="99" gid="1067" x="23" y="443" width="12" height="32" />
  <object id="100" gid="1065" x="691" y="445" width="16" height="16" />
  <object id="101" gid="1062" x="763" y="450" width="14" height="15" />
  <object id="102" gid="2147484717" x="131" y="466" width="10" height="32" />
  <object id="103" gid="2147484719" x="868" y="468" width="10" height="32" />
  <object id="104" gid="2147484718" x="36" y="477" width="12" height="32" />
  <object id="105" gid="2147484707" x="307" y="486" width="14" height="15" />
  <object id="106" gid="1067" x="80" y="486" width="12" height="32" />
  <object id="107" gid="1069" x="11" y="495" width="10" height="32" />
  <object id="108" gid="1070" x="111" y="497" width="12" height="32" />
  <object id="109" gid="1072" x="883" y="506" width="10" height="32" />
  <object id="110" gid="1070" x="37" y="514" width="12" height="32" />
  <object id="111" gid="2147484717" x="522" y="515" width="10" height="32" />
  <object id="112" gid="2147484716" x="784" y="518" width="12" height="32" />
  <object id="113" gid="2147484714" x="566" y="525" width="16" height="15" />
  <object id="114" gid="2147484718" x="82" y="529" width="12" height="32" />
  <object id="115" gid="2147484716" x="862" y="533" width="12" height="32" />
  <object id="116" gid="1038" x="399" y="535" width="8" height="12" />
  <object id="117" gid="2147484719" x="621" y="535" width="10" height="32" />
  <object id="118" gid="1068" x="722" y="542" width="12" height="32" />
  <object id="119" gid="2147484719" x="40" y="548" width="10" height="32" />
  <object id="120" gid="1065" x="485" y="555" width="16" height="16" />
  <object id="121" gid="2147484715" x="562" y="559" width="12" height="32" />
  <object id="122" gid="2147484720" x="766" y="561" width="10" height="32" />
  <object id="123" gid="2147484716" x="885" y="564" width="12" height="32" />
  <object id="124" gid="2147484715" x="844" y="565" width="12" height="32" />
  <object id="125" gid="2147484685" x="439" y="568" width="8" height="12" />
  <object id="126" gid="2147484719" x="15" y="569" width="10" height="32" />
  <object id="127" gid="1068" x="691" y="589" width="12" height="32" />
  <object id="128" gid="1067" x="116" y="589" width="12" height="32" />
  <object id="129" gid="2147484718" x="651" y="592" width="12" height="32" />
  <object id="130" gid="1067" x="67" y="592" width="12" height="32" />
  <object id="131" gid="2147484720" x="260" y="593" width="10" height="32" />
  <object id="132" gid="2147484716" x="566" y="593" width="12" height="32" />
  <object id="133" gid="2147484719" x="180" y="595" width="10" height="32" />
  <object id="134" gid="2147484718" x="334" y="596" width="12" height="32" />
  <object id="135" gid="2147484720" x="386" y="597" width="10" height="32" />
  <object id="136" gid="1069" x="852" y="598" width="10" height="32" />
  <object id="137" gid="1070" x="505" y="599" width="12" height="32" />
  <object id="138" gid="2147484718" x="759" y="600" width="12" height="32" />
  <object id="139" gid="1069" x="302" y="602" width="10" height="32" />
  <object id="140" gid="2147484716" x="602" y="603" width="12" height="32" />
  <object id="141" gid="1070" x="721" y="604" width="12" height="32" />
  <object id="142" gid="2147484716" x="26" y="607" width="12" height="32" />
  <object id="143" gid="1067" x="210" y="612" width="12" height="32" />
  <object id="144" gid="1042" x="416" y="616" width="16" height="11" />
  <object id="145" gid="1042" x="432" y="616" width="16" height="11" />
  <object id="146" gid="1043" x="448" y="616" width="16" height="13" />
  <object id="147" gid="2147484719" x="92" y="616" width="10" height="32" />
  <object id="148" gid="2147484715" x="819" y="617" width="12" height="32" />
  <object id="149" gid="1070" x="884" y="619" width="12" height="32" />
  <object id="150" gid="1068" x="787" y="620" width="12" height="32" />
  <object id="151" gid="1071" x="629" y="623" width="10" height="32" />
  <object id="152" gid="1072" x="687" y="623" width="10" height="32" />
  <object id="153" gid="2147484719" x="133" y="625" width="10" height="32" />
  <object id="154" gid="1070" x="258" y="629" width="12" height="32" />
  <object id="155" gid="2147484716" x="533" y="630" width="12" height="32" />
  <object id="156" gid="1068" x="174" y="630" width="12" height="32" />
  <object id="157" gid="2147484718" x="745" y="632" width="12" height="32" />
  <object id="158" gid="2147484719" x="387" y="632" width="10" height="32" />
  <object id="159" gid="2147484720" x="498" y="634" width="10" height="32" />
  <object id="160" gid="1070" x="349" y="634" width="12" height="32" />
  <object id="161" gid="2147484715" x="851" y="636" width="12" height="32" />
  <object id="162" gid="1068" x="298" y="636" width="12" height="32" />
 </objectgroup>
 <objectgroup id="4" name="Entities">
  <object id="163" x="416" y="296" class="player_spawn">
   <point />
  </object>
  <object id="164" x="480" y="296" class="player_spawn">
   <point />
  </object>
  <object id="165" x="416" y="344" class="player_spawn">
   <point />
  </object>
  <object id="166" x="480" y="344" class="player_spawn">
   <point />
  </object>
  <object id="167" x="440" y="16" class="zombie_spawn">
   <point />
  </object>
  <object id="168" x="440" y="16" class="light">
   <properties>
    <property name="color" type="color" value="#ffff3a2a" />
    <property name="radius" type="float" value="220" />
    <property name="intensity" type="float" value="0.7" />
    <property name="flicker" type="float" value="0.2" />
   </properties>
   <point />
  </object>
  <object id="169" x="440" y="624" class="zombie_spawn">
   <point />
  </object>
  <object id="170" x="440" y="624" class="light">
   <properties>
    <property name="color" type="color" value="#ffff3a2a" />
    <property name="radius" type="float" value="220" />
    <property name="intensity" type="float" value="0.7" />
    <property name="flicker" type="float" value="0.2" />
   </properties>
   <point />
  </object>
  <object id="171" x="16" y="312" class="zombie_spawn">
   <point />
  </object>
  <object id="172" x="16" y="312" class="light">
   <properties>
    <property name="color" type="color" value="#ffff3a2a" />
    <property name="radius" type="float" value="220" />
    <property name="intensity" type="float" value="0.7" />
    <property name="flicker" type="float" value="0.2" />
   </properties>
   <point />
  </object>
  <object id="173" x="880" y="312" class="zombie_spawn">
   <point />
  </object>
  <object id="174" x="880" y="312" class="light">
   <properties>
    <property name="color" type="color" value="#ffff3a2a" />
    <property name="radius" type="float" value="220" />
    <property name="intensity" type="float" value="0.7" />
    <property name="flicker" type="float" value="0.2" />
   </properties>
   <point />
  </object>
  <object id="175" x="392" y="246" class="light">
   <properties>
    <property name="color" type="color" value="#ffffd9a0" />
    <property name="radius" type="float" value="260" />
    <property name="intensity" type="float" value="1.0" />
    <property name="flicker" type="float" value="0.05" />
   </properties>
   <point />
  </object>
  <object id="176" x="504" y="246" class="light">
   <properties>
    <property name="color" type="color" value="#ffffd9a0" />
    <property name="radius" type="float" value="260" />
    <property name="intensity" type="float" value="1.0" />
    <property name="flicker" type="float" value="0.05" />
   </properties>
   <point />
  </object>
  <object id="177" x="392" y="418" class="light">
   <properties>
    <property name="color" type="color" value="#ffffd9a0" />
    <property name="radius" type="float" value="260" />
    <property name="intensity" type="float" value="1.0" />
    <property name="flicker" type="float" value="0.05" />
   </properties>
   <point />
  </object>
  <object id="178" x="504" y="418" class="light">
   <properties>
    <property name="color" type="color" value="#ffffd9a0" />
    <property name="radius" type="float" value="260" />
    <property name="intensity" type="float" value="1.0" />
    <property name="flicker" type="float" value="0.05" />
   </properties>
   <point />
  </object>
  <object id="179" x="448" y="320" class="light">
   <properties>
    <property name="color" type="color" value="#ff9fb4ff" />
    <property name="radius" type="float" value="470" />
    <property name="intensity" type="float" value="0.5" />
   </properties>
   <point />
  </object>
 </objectgroup>
</map>